public/assets/images/Failed-white.svg

<svg width="20" height="21" viewBox="0 0 20 21" fill="none" xmlns="http://www.w3.org/2000/svg">
<rect x="1" y="1.5" width="18" height="18" rx="9" fill="#FF5449"/>
<rect x="1" y="1.5" width="18" height="18" rx="9" stroke="#F3F5F6" stroke-width="2"/>
<path d="M13.1111 8.01729L12.4845 7.39062L10 9.87507L7.51558 7.39062L6.88892 8.01729L9.37336 10.5017L6.88892 12.9862L7.51558 13.6128L10 11.1284L12.4845 13.6128L13.1111 12.9862L10.6267 10.5017L13.1111 8.01729Z" fill="white"/>
</svg>

<svg width="20" height="21" fill="none" xmlns="http://www.w3.org/2000/svg"><rect x="1" y="1.5" width="18" height="18" rx="9" fill="#FF5449"/><rect x="1" y="1.5" width="18" height="18" rx="9" stroke="#F3F5F6" stroke-width="2"/><path d="M13.111 8.017l-.627-.626L10 9.875 7.516 7.391l-.627.626 2.484 2.485-2.484 2.484.627.627L10 11.128l2.485 2.485.626-.627-2.484-2.484 2.484-2.485z" fill="#fff"/></svg>
